dist/svg/router.svg

<svg width="16" height="16" viewBox="0 0 16 16" fill="rgb(34, 34, 34)" xmlns="http://www.w3.org/2000/svg"><title>router</title><path d="M15 9H14V3H13L11 9H5L3 3H2V9H1C0.448 9 0 9.448 0 10V14C0 14.552 0.448 15 1 15H15C15.552 15 16 14.552 16 14V10C16 9.448 15.552 9 15 9ZM4 13C3.448 13 3 12.552 3 12C3 11.448 3.448 11 4 11C4.552 11 5 11.448 5 12C5 12.552 4.552 13 4 13ZM7 13C6.448 13 6 12.552 6 12C6 11.448 6.448 11 7 11C7.552 11 8 11.448 8 12C8 12.552 7.552 13 7 13ZM10 13C9.448 13 9 12.552 9 12C9 11.448 9.448 11 10 11C10.552 11 11 11.448 11 12C11 12.552 10.552 13 10 13ZM13 13C12.448 13 12 12.552 12 12C12 11.448 12.448 11 13 11C13.552 11 14 11.448 14 12C14 12.552 13.552 13 13 13Z" fill="rgb(34, 34, 34)" fill-opacity="1.00"/><path d="M9 5C9 5.552 8.552 6 8 6C7.448 6 7 5.552 7 5C7 4.448 7.448 4 8 4C8.552 4 9 4.448 9 5Z" fill="rgb(34, 34, 34)" fill-opacity="1.00"/><path d="M7.99998 1C9.45598 1.017 10.723 1.808 11.41 2.981L11.42 3L12.27 2.49C11.377 1.042 9.79998 0.0910034 7.99998 0.0910034C6.19998 0.0910034 4.62298 1.042 3.74198 2.468L3.72998 2.49L4.57998 3C5.27698 1.808 6.54398 1.017 7.99798 1H7.99998Z" fill="rgb(34, 34, 34)" fill-opacity="1.00"/><path d="M9.71 4.00001L10.56 3.48001C10.024 2.61301 9.078 2.04401 8 2.04401C6.922 2.04401 5.976 2.61301 5.447 3.46701L5.44 3.48001L6.29 4.00001C6.647 3.41901 7.279 3.03701 8 3.03701C8.721 3.03701 9.353 3.41901 9.705 3.99101L9.71 4.00001Z" fill="rgb(34, 34, 34)" fill-opacity="1.00"/></svg>

<!-- Generated by Trend Micro Style Portal -->
<svg version="1.1" xmlns="http://www.w3.org/2000/svg" width="16" height="16" viewBox="0 0 16 16">
  <title>router</title>
  <path fill="rgb(34,34,34)" d="M15 9h-1v-6h-1l-2 6h-6l-2-6h-1v6h-1c-0.552 0-1 0.448-1 1v0 4c0 0.552 0.448 1 1 1v0h14c0.552 0 1-0.448 1-1v0-4c0-0.552-0.448-1-1-1v0zM4 13c-0.552 0-1-0.448-1-1s0.448-1 1-1c0.552 0 1 0.448 1 1v0c0 0.552-0.448 1-1 1v0zM7 13c-0.552 0-1-0.448-1-1s0.448-1 1-1c0.552 0 1 0.448 1 1v0c0 0.552-0.448 1-1 1v0zM10 13c-0.552 0-1-0.448-1-1s0.448-1 1-1c0.552 0 1 0.448 1 1v0c0 0.552-0.448 1-1 1v0zM13 13c-0.552 0-1-0.448-1-1s0.448-1 1-1c0.552 0 1 0.448 1 1v0c0 0.552-0.448 1-1 1v0z"></path>
  <path fill="rgb(34,34,34)" d="M9 5c0 0.552-0.448 1-1 1s-1-0.448-1-1c0-0.552 0.448-1 1-1s1 0.448 1 1z"></path>
  <path fill="rgb(34,34,34)" d="M8 1c1.456 0.017 2.723 0.808 3.41 1.981l0.010 0.019 0.85-0.51c-0.893-1.448-2.47-2.399-4.27-2.399s-3.377 0.951-4.258 2.377l-0.012 0.022 0.85 0.51c0.697-1.192 1.964-1.983 3.418-2l0.002-0z"></path>
  <path fill="rgb(34,34,34)" d="M9.71 4l0.85-0.52c-0.536-0.867-1.482-1.436-2.56-1.436s-2.024 0.569-2.553 1.423l-0.007 0.013 0.85 0.52c0.357-0.581 0.989-0.963 1.71-0.963s1.353 0.382 1.705 0.954l0.005 0.009z"></path>
</svg>
